X:1
T:Maori, 10.10.10.10
T:Maori melody, arranged by J. Edwin Orr, 1936
T:Maori, 10.10.10.10
T:Public Domain
C:Maori melody, arranged by J. Edwin Orr, 1936
Z:Public Domain
%%score ( 1 2 ) 3
L:1/8
M:3/4
K:F
V:1 treble 
V:2 treble 
V:3 bass 
V:1
 [FA]6 | F4 [FG]2 | [FA]6- | [FA]4 [FA]2 | [EA]4 [EG]2 | [EB]4 [CE]2 | [CF]6- | [CF]6 | [DF]6 | %9
 [DG]4 [D^G]2 | [CA]6 | [CF]6 | [DG]4 [DF]2 | [DE]4 [DF]2 | [E-G]6 | [E^G]6 | [FA]6 | F4 [FG]2 | %18
 [FA]6- | [FA]4 [FA]2 | [EA]4 [EG]2 | [EB]4 [CE]2 | [CF]6- | [CF]6 | [DF]6 | [DG]4 [D^G]2 | %26
 [CA]4 [CF]2 | [DB]4 [DA]2 | D6 | [CE]6 | [CF]6- | [CF]6 |] %32
V:2
 x6 | F4 x2 | x6 | x6 | x6 | x6 | x6 | x6 | x6 | x6 | x6 | x6 | x6 | x6 | x6 | x6 | x6 | F4 x2 | %18
 x6 | x6 | x6 | x6 | x6 | x6 | x6 | x6 | x6 | x6 | D6 | x6 | x6 | x6 |] %32
V:3
 [F,C]6 | [B,,D]4 [B,,_D]2 | [F,C]6- | [F,C]4 [F,C]2 | [C,C]4 [C,B,]2 | [C,G,]4 [C,B,]2 | %6
 [F,,A,]6- | [F,,A,]6 | [B,,B,]6 | [B,,B,]4 [=B,,F,]2 | [C,F,]6 | [D,A,]6 | [G,,=B,]4 [G,,B,]2 | %13
 [G,,=B,]4 [G,,B,]2 | [C,C]6- | [C,C]6 | [F,C]6 | [B,,D]4 [B,,_D]2 | [F,C]6- | [F,C]4 [F,C]2 | %20
 [C,C]4 [C,B,]2 | [C,G,]4 [C,B,]2 | [F,,A,]6- | [F,,A,]6 | [B,,B,]6 | [B,,B,]4 [=B,,F,]2 | %26
 [C,F,]4 [_E,A,]2 | [D,^F,]4 [F,C]2 | [G,=B,]6 | [C,B,]6 | [F,,A,]6- | [F,,A,]6 |] %32

